X: 40663
T: Top Of The Maol, The
R: polka
M: 2/4
K: Amixolydian
d2 B2|A2 AB/d/|ed Bd|G>F G>A|Bd BG|
A2 AB/d/|ed Bd|e/f/g/e/ dB|A2 AE|
A>G AB/d/|e/f/e/d/ Bd|G>F G>A|Bd BG|
A2 AB/d/|ed Bd|e/f/g/e/ dB|A2 A2||
ea a2|ba g2|e>f ga|ge- ed|
ea a2|ba g2|e/f/g/e/ dB|A2 AB/d/|
ea a2|ba g2|ef ga|ge ed|
ea a2|ba g2|e/f/g/e/ dB|A2 AE||

